X:1
T:I’m Going That Way
T:I’m Going That Way
T:L. B. Register
T:James Rowe, 1920
T:Public Domain Courtesy of the Cyber Hymnal™
T:Public Domain Courtesy of the Cyber Hymnal™
C:L. B. Register
Z:Public Domain
Z:Courtesy of the Cyber Hymnal™
%%score ( 1 2 ) ( 3 4 )
L:1/8
Q:1/4=100
M:12/8
K:Bb
V:1 treble 
V:2 treble 
V:3 bass 
V:4 bass 
V:1
 [DF][DF][DG] [DA] | [DB]2 [DB] [EB]2 [EB] [DB]2 [DF] [EG][EG][EB] | F3 F3- [DF]2 | %3
w: 1.~I’ve heard of a|land of joy and peace And won- der- ful|light; * A|
w: 2.~The glo- ri- ous|news I tell and sing, As on- ward I|go; * That|
w: 3.~I know I shall|meet Him at the gate, When tri- als are|past, * I|
 [DF][DF][FB] [Fc] | [Fd]2 [Fd] [Fd]2 [Ec] [DB]2 [Fc] [Fd][Fc][=E_B] | c3- c3- [Fc]2 | %6
w: ti- ful place of|man- sions fair And skies ev- er bright; Where|all * who|
w: who are still a-|stray in sin My Sav- ior may know; I|want * them|
w: I shall meet Him|face to face In glo- ry at last; And,|oh, * I|
 FF[=EG] [_EA] | [DB]2 [EB] [EB]2 [EB] [DB]2 F [EG][EG][GB] | F3 F3- [DF]2 | [DF][DF][FB] [Fc] | %10
w: * be- lieve the|Sav- ior dear, For- ev- er shall stay, And|hav- * ing|saved by grace di-|
w: * to sing His|praise a- bove, Some beau- ti- ful day, For|glo- * ry|Him who died for|
w: * be- lieve than|when we meet “Well done” He will say, For|trust- * ing|soul re- deem- ing|
 [Fd]2 [Fd] [Bd]2 [Gc] [FB]2 [FB] [FA][FB][Fc] | [FB]8 |:"^Refrain" [DB][Fd][=E^c] [Fd] | %13
w: vine, I’m go- ing that way. * * *|||
w: me, I’m go- ing that way. I’m go- ing|that|way, I’m go- ing|
w: love, I’m go- ing that way. I’m cling- ing|to|Him, and nev- er|
 B3- B3- [DB]2 F [EG][EG][EB] |1 F3- F3- F3 [DF][DF][FB][Fc] | %15
w: ||
w: that * way; And Je- sus the|Sav- * * ior I a- dore|
w: to * stray, * * * *||
 [Fd]2 [Fd] [Bd]2 [Ac] [GB]2 [Ac] [Bd][Fc][GB] | c3- c3- [Ac]2 :|2 [DF][DF][FB] [Fc] || %18
w: |||
w: Is with me each day; Yes, sing- ing His|prais- * es|* all day long,|
w: |||
 [Fd]2 [Fd] [Bd]2 [Gc] [FB]2 [FB] [FA][FB][Fc] | B3- B3- [FB]2 |] %20
w: ||
w: I’m go- ing that way. * * * *||
w: ||
V:2
 x4 | x12 | F2- F- E-EE x2 | x4 | x12 | F2 F=EFG x2 | FF x2 | x8 F x3 | F2- F-EEE x2 | x4 | x12 | %11
 x8 |: x4 | (D2 D E2 E F) x5 |1 (D2 DCCC D2) x5 | x12 | A2 A GAB x2 :|2 x4 || x12 | F2 FFDE x2 |] %20
V:3
 [B,,B,][B,,B,][B,,B,] [B,,B,] | %1
 [B,,F,]2 [B,,F,] [B,,G,]2 [B,,G,] [B,,F,]2 [B,,B,] [E,B,][E,B,][E,G,] | %2
 ([D,B,]2 [D,B,][C,A,][C,A,][C,A,] [B,,B,]2) | [B,,B,][B,,B,][D,B,] [F,A,] | %4
 B,2 B, B,2 [F,A,] [G,B,]2 [F,A,] B,[A,C][G,C] | ([F,A,]2 [F,A,][C,G,][C,A,][C,B,] [F,A,]2) | %6
 [F,A,][F,A,][F,B,] [F,C] | [B,,B,]2 [B,,F,] [B,,G,]2 [B,,G,] [B,,F,]2 [D,B,] [E,B,][E,B,][E,B,] | %8
 ([D,B,]2 [D,B,][C,A,][C,A,][C,A,] [B,,B,]2) | [B,,B,][B,,B,][D,B,] [F,A,] | %10
 B,2 [B,D] [B,F]2 [E,E] [F,D]2 [F,D] [F,C][F,D][F,E] | [B,,D]8 |: [B,,F,][B,,B,][B,,B,] [B,,B,] | %13
 ([B,,F,]2 [B,,F,] [B,,G,]2 [B,,G,] [B,,F,]2) [D,B,] [E,B,][E,B,][G,B,] |1 %14
 B,2 B, ([F,A,][F,A,][F,A,] [B,,B,]2) [B,,B,] [B,,B,][D,B,][F,A,] x | %15
 B,2 [B,D] [B,F]2 [F,E] [G,D]2 [D,F] [G,F][F,F][_E,=E] | ([F,F]2 [F,F] [C,=E][C,F][C,G] [F,F]2) :|2 %17
 [B,,B,][B,,B,][D,B,] [F,A,] || B,2 [B,D] [B,F]2 [E,E] [F,D]2 [F,D] [F,C][F,D][F,E] | %19
 (D2 DDB,C [B,,D]2) |] %20
V:4
 x4 | x12 | x8 | x4 | B,2 B, B,2 x2 B, x4 | x8 | x4 | x12 | x8 | x4 | B,2 x10 | x8 |: x4 | x12 |1 %14
 B,2 B, x10 | B,2 x10 | x8 :|2 x4 || B,2 x10 | B,,3- B,,3- x2 |] %20

